X: 051
T: Mrs Clarks Strathspey
R: strathspey
M: C|
L: 1/8
Z: 2012 John Chambers <jc:trillian.mit.edu>
B: J. Anderson "Budget of Strathspeys, Reels and Country Dances" (Early 1800s) p.5 #1
F: http://imslp.org/wiki/Anderson%27s_Budget_of_Strathspeys,_Reels_and_Country_Dances_(Various)
K: C
e | c/c/c (cG) EGGE | GcEc Ddde | fdec (c/B/)(A/G/) cG | A/A/A (cd) ecc :|
e | c/c/c (gc) acgc | fdec Bdde | fdec (c/B/A/).G/ cG | A/A/A (cd) ecce |
    c/c/c (gc) acgc | fdec Bdde | fdBd cGEG | AFDf ecc |]

%%sep 2 1 500
%%sep 1 1 500

